svgs/themed_icon_calendar_11.svg

<svg height="192" width="192" xmlns="http://www.w3.org/2000/svg"><path d="M146 30H46c-8.837 0-16 7.163-16 16v100c0 8.837 7.163 16 16 16h75.373a16 16 0 0 0 11.313-4.686l24.628-24.628A16 16 0 0 0 162 121.373V46c0-8.837-7.163-16-16-16Z" stroke="#000" stroke-width="12" fill="none"/><path d="M64.852 120c-3.168 0-4.752-1.536-4.752-4.608 0-3.024 1.584-4.536 4.752-4.536h7.272V81.624l-5.256 3.168c-1.392.816-2.64 1.032-3.744.648s-1.944-1.104-2.52-2.16c-.576-1.056-.744-2.184-.504-3.384.24-1.248 1.032-2.304 2.376-3.168l10.008-6.048a17.78 17.78 0 0 1 3.024-1.512c1.056-.384 2.088-.576 3.096-.576 1.44 0 2.568.384 3.384 1.152.864.768 1.296 1.896 1.296 3.384v37.728h6.552c3.12 0 4.68 1.512 4.68 4.536 0 3.072-1.56 4.608-4.68 4.608H64.852Zm41.732 0c-3.168 0-4.752-1.536-4.752-4.608 0-3.024 1.584-4.536 4.752-4.536h7.272V81.624l-5.256 3.168c-1.392.816-2.64 1.032-3.744.648s-1.944-1.104-2.52-2.16c-.576-1.056-.744-2.184-.504-3.384.24-1.248 1.032-2.304 2.376-3.168l10.008-6.048a17.78 17.78 0 0 1 3.024-1.512c1.056-.384 2.088-.576 3.096-.576 1.44 0 2.568.384 3.384 1.152.864.768 1.296 1.896 1.296 3.384v37.728h6.552c3.12 0 4.68 1.512 4.68 4.536 0 3.072-1.56 4.608-4.68 4.608h-24.984Z"/></svg>

<?xml version="1.0" encoding="UTF-8" standalone="no"?><svg xmlns:android="http://schemas.android.com/apk/res/android" height="192" width="192" xmlns="http://www.w3.org/2000/svg">
  <path d="M146,30H46C37.163,30 30,37.163 30,46V146C30,154.837 37.163,162 46,162H121.373C125.616,162 129.686,160.314 132.686,157.314L157.314,132.686C160.314,129.686 162,125.616 162,121.373V46C162,37.163 154.837,30 146,30Z" fill="#000000" fill-opacity="0.0" stroke="#000000" stroke-width="12"/>
  <path d="M64.852,120C61.684,120 60.1,118.464 60.1,115.392C60.1,112.368 61.684,110.856 64.852,110.856H72.124V81.624L66.868,84.792C65.476,85.608 64.228,85.824 63.124,85.44C62.02,85.056 61.18,84.336 60.604,83.28C60.028,82.224 59.86,81.096 60.1,79.896C60.34,78.648 61.132,77.592 62.476,76.728L72.484,70.68C73.492,70.056 74.5,69.552 75.508,69.168C76.564,68.784 77.596,68.592 78.604,68.592C80.044,68.592 81.172,68.976 81.988,69.744C82.852,70.512 83.284,71.64 83.284,73.128V110.856H89.836C92.956,110.856 94.516,112.368 94.516,115.392C94.516,118.464 92.956,120 89.836,120H64.852ZM106.584,120C103.416,120 101.832,118.464 101.832,115.392C101.832,112.368 103.416,110.856 106.584,110.856H113.856V81.624L108.6,84.792C107.208,85.608 105.96,85.824 104.856,85.44C103.752,85.056 102.912,84.336 102.336,83.28C101.76,82.224 101.592,81.096 101.832,79.896C102.072,78.648 102.864,77.592 104.208,76.728L114.216,70.68C115.224,70.056 116.232,69.552 117.24,69.168C118.296,68.784 119.328,68.592 120.336,68.592C121.776,68.592 122.904,68.976 123.72,69.744C124.584,70.512 125.016,71.64 125.016,73.128V110.856H131.568C134.688,110.856 136.248,112.368 136.248,115.392C136.248,118.464 134.688,120 131.568,120H106.584Z" fill="#000000"/>
</svg>
